X: 37
T:Bill Cheetham
R:Reel
C:via PR
S:Nottingham Music Database
M:4/4
L:1/8
Q:1/4=200
K:A
|:E2c2 c2AB|cBAc BAFE|DFAc d2Bc|dcde dcBA|
EFAB c2AB|cBAc BAFA|dcde fgaf|ecBc A4:|
|:ecea fdfa|gabg a2cd|ecea fdfa|ecBA B2cd|
ecea fdfa|gabg a2fg|agae faed|cAB2 A4:|
